X: 263
M: C|
L: 1/8
K: Dm
V: 1
    defg afdf | edcg ecge | defg abaf | ecge d/d/d d |]
V: 2 clef=bass middle=d
z | d2d2 d2d2 | c2c2 c2c2 | d2d2 d2d2 | A2A2 D2D :|
z | d2d2 f2g2 | c'2c2 c2c2 | d2d2 f2g2 | a2A2 d2d2 |
    d2d2 f2g2 | c'2g2 c2c2 | d2d2 f2d2 | a2A2 d2d |]


